X:1
T:Croen y Ddafad Felen
T:The Yellow Sheepskin
M:C|
H:This one is usually played several times through, transposing into different
keys.  It is particularly fun in F#.
K:G
G>AB>c d2 d2 | c>Bc>A d2 d2 | c>BA>c B>AG>B | A>GF>G A2 D2 |
G>AB>c d2 d2 | c>Bc>A d2 d2 | c>BA>c B>AG>B | A>Ad>d G2 G2 ||
